elementary-add/apps/48/foobnix.svg

<?xml version="1.0" encoding="UTF-8" standalone="no"?>
<!-- Created with Inkscape (http://www.inkscape.org/) -->

<svg
   xmlns:dc="http://purl.org/dc/elements/1.1/"
   xmlns:cc="http://creativecommons.org/ns#"
   xmlns:rdf="http://www.w3.org/1999/02/22-rdf-syntax-ns#"
   xmlns:svg="http://www.w3.org/2000/svg"
   xmlns="http://www.w3.org/2000/svg"
   xmlns:xlink="http://www.w3.org/1999/xlink"
   xmlns:sodipodi="http://sodipodi.sourceforge.net/DTD/sodipodi-0.dtd"
   xmlns:inkscape="http://www.inkscape.org/namespaces/inkscape"
   version="1.1"
   width="48"
   height="48"
   id="svg6649"
   inkscape:version="0.91 r"
   sodipodi:docname="foobnix.svg">
  <sodipodi:namedview
     pagecolor="#ffffff"
     bordercolor="#666666"
     borderopacity="1"
     objecttolerance="10"
     gridtolerance="10"
     guidetolerance="10"
     inkscape:pageopacity="0"
     inkscape:pageshadow="2"
     inkscape:window-width="1600"
     inkscape:window-height="845"
     id="namedview45"
     showgrid="false"
     inkscape:zoom="7.04"
     inkscape:cx="-10.530661"
     inkscape:cy="21.859292"
     inkscape:window-x="0"
     inkscape:window-y="30"
     inkscape:window-maximized="1"
     inkscape:current-layer="svg6649"
     showguides="false" />
  <defs
     id="defs6651">
    <linearGradient
       id="linearGradient4240">
      <stop
         offset="0"
         style="stop-color:#3aaac5;stop-opacity:1"
         id="stop4242" />
      <stop
         offset="0.26238"
         style="stop-color:#5984a6;stop-opacity:1"
         id="stop4244" />
      <stop
         offset="0.704952"
         style="stop-color:#427ebd;stop-opacity:1"
         id="stop4246" />
      <stop
         offset="1"
         style="stop-color:#4c67b3;stop-opacity:1"
         id="stop4249" />
    </linearGradient>
    <linearGradient
       x1="167.98311"
       y1="8.50811"
       x2="167.98311"
       y2="54.780239"
       id="linearGradient5414"
       xlink:href="#linearGradient5803"
       gradientUnits="userSpaceOnUse"
       gradientTransform="matrix(0.71090703,0,0,0.71090703,-91.334988,2.139763)" />
    <linearGradient
       id="linearGradient5803">
      <stop
         id="stop5805"
         style="stop-color:#fff5ef;stop-opacity:1"
         offset="0" />
      <stop
         id="stop5807"
         style="stop-color:#fef8dd;stop-opacity:1"
         offset="1" />
    </linearGradient>
    <linearGradient
       x1="23.99999"
       y1="4.999989"
       x2="23.99999"
       y2="43"
       id="linearGradient3058"
       xlink:href="#linearGradient3924-1"
       gradientUnits="userSpaceOnUse"
       gradientTransform="translate(4e-6,1.000006)" />
    <linearGradient
       id="linearGradient3924-1">
      <stop
         id="stop3926-3"
         style="stop-color:#ffffff;stop-opacity:1"
         offset="0" />
      <stop
         id="stop3928-91"
         style="stop-color:#ffffff;stop-opacity:0.23529412"
         offset="0.06316455" />
      <stop
         id="stop3930-6"
         style="stop-color:#ffffff;stop-opacity:0.15686275"
         offset="0.95056331" />
      <stop
         id="stop3932-6"
         style="stop-color:#ffffff;stop-opacity:0.39215687"
         offset="1" />
    </linearGradient>
    <radialGradient
       cx="6.7304144"
       cy="9.9571075"
       r="12.671875"
       fx="6.2001843"
       fy="9.9571075"
       id="radialGradient5521-1"
       xlink:href="#linearGradient4240"
       gradientUnits="userSpaceOnUse"
       gradientTransform="matrix(0,9.4975523,-11.65996,0,140.93055,-79.160978)" />
    <linearGradient
       id="linearGradient2867-449-88-871-390-598-476-591-434-148-57-177-8-3-3-6-4-8-8-8">
      <stop
         id="stop3750-1-0-7-6-6-1-3-9"
         style="stop-color:#ffcd7d;stop-opacity:1"
         offset="0" />
      <stop
         id="stop3752-3-7-4-0-32-8-923-0"
         style="stop-color:#fc8f36;stop-opacity:1"
         offset="0.26238" />
      <stop
         id="stop3754-1-8-5-2-7-6-7-1"
         style="stop-color:#e23a0e;stop-opacity:1"
         offset="0.704952" />
      <stop
         id="stop3756-1-6-2-6-6-1-96-6"
         style="stop-color:#ac441f;stop-opacity:1"
         offset="1" />
    </linearGradient>
    <radialGradient
       cx="4.9929786"
       cy="43.5"
       r="2.5"
       fx="4.9929786"
       fy="43.5"
       id="radialGradient3013"
       xlink:href="#linearGradient3688-166-749"
       gradientUnits="userSpaceOnUse"
       gradientTransform="matrix(2.003784,0,0,1.4,27.98813,-17.4)" />
    <linearGradient
       id="linearGradient3688-166-749">
      <stop
         id="stop2883"
         style="stop-color:#181818;stop-opacity:1"
         offset="0" />
      <stop
         id="stop2885"
         style="stop-color:#181818;stop-opacity:0"
         offset="1" />
    </linearGradient>
    <radialGradient
       cx="4.9929786"
       cy="43.5"
       r="2.5"
       fx="4.9929786"
       fy="43.5"
       id="radialGradient3015"
       xlink:href="#linearGradient3688-464-309"
       gradientUnits="userSpaceOnUse"
       gradientTransform="matrix(2.003784,0,0,1.4,-20.01187,-104.4)" />
    <linearGradient
       id="linearGradient3688-464-309">
      <stop
         id="stop2889"
         style="stop-color:#181818;stop-opacity:1"
         offset="0" />
      <stop
         id="stop2891"
         style="stop-color:#181818;stop-opacity:0"
         offset="1" />
    </linearGradient>
    <linearGradient
       id="linearGradient3702-501-757">
      <stop
         id="stop2895"
         style="stop-color:#181818;stop-opacity:0"
         offset="0" />
      <stop
         id="stop2897"
         style="stop-color:#181818;stop-opacity:1"
         offset="0.5" />
      <stop
         id="stop2899"
         style="stop-color:#181818;stop-opacity:0"
         offset="1" />
    </linearGradient>
    <linearGradient
       x1="25.058096"
       y1="47.027729"
       x2="25.058096"
       y2="39.999443"
       id="linearGradient6647"
       xlink:href="#linearGradient3702-501-757"
       gradientUnits="userSpaceOnUse" />
    <linearGradient
       x1="23.99999"
       y1="4.999989"
       x2="23.99999"
       y2="43"
       id="linearGradient4136"
       xlink:href="#linearGradient3924"
       gradientUnits="userSpaceOnUse"
       gradientTransform="matrix(2.7297298,0,0,2.7297298,-165.37792,-53.368969)" />
    <linearGradient
       id="linearGradient3924">
      <stop
         id="stop3926"
         style="stop-color:#ffffff;stop-opacity:1"
         offset="0" />
      <stop
         id="stop3928"
         style="stop-color:#ffffff;stop-opacity:0.23529412"
         offset="0.06316455" />
      <stop
         id="stop3930"
         style="stop-color:#ffffff;stop-opacity:0.15686275"
         offset="0.95056331" />
      <stop
         id="stop3932"
         style="stop-color:#ffffff;stop-opacity:0.39215687"
         offset="1" />
    </linearGradient>
    <radialGradient
       cx="6.7304144"
       cy="9.9571075"
       r="12.671875"
       fx="6.2001843"
       fy="9.9571075"
       id="radialGradient5264-4"
       xlink:href="#linearGradient2867-449-88-871-390-598-476-591-434-148-57-177-8-3-3-6-4-8-8-8-2"
       gradientUnits="userSpaceOnUse"
       gradientTransform="matrix(0,25.083279,-30.794253,0,208.95215,-262.94728)" />
    <linearGradient
       id="linearGradient2867-449-88-871-390-598-476-591-434-148-57-177-8-3-3-6-4-8-8-8-2">
      <stop
         id="stop3750-1-0-7-6-6-1-3-9-2"
         style="stop-color:#00cdff;stop-opacity:1;"
         offset="0" />
      <stop
         id="stop3752-3-7-4-0-32-8-923-0-2"
         style="stop-color:#008fff;stop-opacity:1;"
         offset="0.26238" />
      <stop
         id="stop3754-1-8-5-2-7-6-7-1-9"
         style="stop-color:#007cff;stop-opacity:1;"
         offset="0.704952" />
      <stop
         id="stop3756-1-6-2-6-6-1-96-6-9"
         style="stop-color:#0044ff;stop-opacity:1;"
         offset="1" />
    </linearGradient>
    <radialGradient
       cx="4.9929786"
       cy="43.5"
       r="2.5"
       fx="4.9929786"
       fy="43.5"
       id="radialGradient4093"
       xlink:href="#linearGradient3688-166-749-5"
       gradientUnits="userSpaceOnUse"
       gradientTransform="matrix(2.003784,0,0,1.4,27.98813,-17.4)" />
    <linearGradient
       id="linearGradient3688-166-749-5">
      <stop
         id="stop2883-0"
         style="stop-color:#181818;stop-opacity:1"
         offset="0" />
      <stop
         id="stop2885-5"
         style="stop-color:#181818;stop-opacity:0"
         offset="1" />
    </linearGradient>
    <radialGradient
       cx="4.9929786"
       cy="43.5"
       r="2.5"
       fx="4.9929786"
       fy="43.5"
       id="radialGradient4095"
       xlink:href="#linearGradient3688-464-309-8"
       gradientUnits="userSpaceOnUse"
       gradientTransform="matrix(2.003784,0,0,1.4,-20.01187,-104.4)" />
    <linearGradient
       id="linearGradient3688-464-309-8">
      <stop
         id="stop2889-9"
         style="stop-color:#181818;stop-opacity:1"
         offset="0" />
      <stop
         id="stop2891-4"
         style="stop-color:#181818;stop-opacity:0"
         offset="1" />
    </linearGradient>
    <linearGradient
       x1="25.058096"
       y1="47.027729"
       x2="25.058096"
       y2="39.999443"
       id="linearGradient4097"
       xlink:href="#linearGradient3702-501-757-0"
       gradientUnits="userSpaceOnUse" />
    <linearGradient
       id="linearGradient3702-501-757-0">
      <stop
         id="stop2895-0"
         style="stop-color:#181818;stop-opacity:0"
         offset="0" />
      <stop
         id="stop2897-2"
         style="stop-color:#181818;stop-opacity:1"
         offset="0.5" />
      <stop
         id="stop2899-6"
         style="stop-color:#181818;stop-opacity:0"
         offset="1" />
    </linearGradient>
    <radialGradient
       cx="-4.0287771"
       cy="93.467628"
       r="35.338131"
       fx="-4.0287771"
       fy="93.467628"
       id="radialGradient6276"
       xlink:href="#linearGradient3811"
       gradientUnits="userSpaceOnUse"
       gradientTransform="matrix(1.5563924,0,0,0.16978827,70.270355,38.132099)" />
    <linearGradient
       id="linearGradient3811">
      <stop
         id="stop3813"
         style="stop-color:#000000;stop-opacity:1"
         offset="0" />
      <stop
         id="stop3815"
         style="stop-color:#000000;stop-opacity:0"
         offset="1" />
    </linearGradient>
    <radialGradient
       r="35.338131"
       fy="93.467628"
       fx="-4.0287771"
       cy="93.467628"
       cx="-4.0287771"
       gradientTransform="matrix(1.5563924,0,0,0.16978827,-93.594054,47.274811)"
       gradientUnits="userSpaceOnUse"
       id="radialGradient3092"
       xlink:href="#linearGradient3811"
       inkscape:collect="always" />
    <linearGradient
       id="SVGID_1_"
       gradientUnits="userSpaceOnUse"
       x1="64"
       y1="3"
       x2="64"
       y2="113">
      <stop
         offset="0"
         style="stop-color:#29ABE2"
         id="stop8" />
      <stop
         offset="0.4757"
         style="stop-color:#28A9E1"
         id="stop10" />
      <stop
         offset="0.6639"
         style="stop-color:#23A2DC"
         id="stop12" />
      <stop
         offset="0.8012"
         style="stop-color:#1A96D4"
         id="stop14" />
      <stop
         offset="0.913"
         style="stop-color:#0E85C9"
         id="stop16" />
      <stop
         offset="1"
         style="stop-color:#0071BC"
         id="stop18" />
    </linearGradient>
    <radialGradient
       gradientTransform="matrix(0,9.4975523,-11.65996,0,82.82057,-81.084332)"
       gradientUnits="userSpaceOnUse"
       xlink:href="#linearGradient2867-449-88-871-390-598-476-591-434-148-57-177-8-3-3-6-4-8-8-8-2"
       id="radialGradient5521-1-6"
       fy="9.9571075"
       fx="6.2001843"
       r="12.671875"
       cy="9.9571075"
       cx="6.7304144" />
    <radialGradient
       gradientTransform="matrix(2.003784,0,0,1.4,27.98813,-17.4)"
       gradientUnits="userSpaceOnUse"
       xlink:href="#linearGradient3688-166-749"
       id="radialGradient3013-2"
       fy="43.5"
       fx="4.9929786"
       r="2.5"
       cy="43.5"
       cx="4.9929786" />
    <radialGradient
       gradientTransform="matrix(2.003784,0,0,1.4,-20.01187,-104.4)"
       gradientUnits="userSpaceOnUse"
       xlink:href="#linearGradient3688-166-749"
       id="radialGradient3015-4"
       fy="43.5"
       fx="4.9929786"
       r="2.5"
       cy="43.5"
       cx="4.9929786" />
    <linearGradient
       gradientUnits="userSpaceOnUse"
       xlink:href="#linearGradient3702-501-757"
       id="linearGradient4321"
       y2="39.999443"
       x2="25.058096"
       y1="47.027729"
       x1="25.058096" />
    <radialGradient
       gradientTransform="matrix(0,25.083279,-30.794253,0,208.95215,-262.94728)"
       gradientUnits="userSpaceOnUse"
       xlink:href="#linearGradient2867-449-88-871-390-598-476-591-434-148-57-177-8-3-3-6-4-8-8-8-2"
       id="radialGradient5264-4-3"
       fy="9.9571075"
       fx="6.2001843"
       r="12.671875"
       cy="9.9571075"
       cx="6.7304144" />
    <radialGradient
       gradientTransform="matrix(2.003784,0,0,1.4,27.98813,-17.4)"
       gradientUnits="userSpaceOnUse"
       xlink:href="#linearGradient3688-166-749"
       id="radialGradient4093-2"
       fy="43.5"
       fx="4.9929786"
       r="2.5"
       cy="43.5"
       cx="4.9929786" />
    <radialGradient
       gradientTransform="matrix(2.003784,0,0,1.4,-20.01187,-104.4)"
       gradientUnits="userSpaceOnUse"
       xlink:href="#linearGradient3688-166-749"
       id="radialGradient4095-7"
       fy="43.5"
       fx="4.9929786"
       r="2.5"
       cy="43.5"
       cx="4.9929786" />
    <radialGradient
       gradientTransform="matrix(1.5563924,0,0,0.16978827,70.270355,38.132099)"
       gradientUnits="userSpaceOnUse"
       xlink:href="#linearGradient3811"
       id="radialGradient6276-8"
       fy="93.467628"
       fx="-4.0287771"
       r="35.338131"
       cy="93.467628"
       cx="-4.0287771" />
    <radialGradient
       inkscape:collect="always"
       xlink:href="#linearGradient3811"
       id="radialGradient3092-4"
       gradientUnits="userSpaceOnUse"
       gradientTransform="matrix(1.5563924,0,0,0.16978827,-93.594054,47.274811)"
       cx="-4.0287771"
       cy="93.467628"
       fx="-4.0287771"
       fy="93.467628"
       r="35.338131" />
    <linearGradient
       id="linearGradient3845">
      <stop
         id="stop3847"
         style="stop-color:#fafafa;stop-opacity:1;"
         offset="0" />
      <stop
         id="stop3849"
         style="stop-color:#dcdcdc;stop-opacity:1;"
         offset="1" />
    </linearGradient>
    <linearGradient
       id="linearGradient3895-9-0-3-7-3">
      <stop
         offset="0"
         style="stop-color:#185e88;stop-opacity:0.78431374;"
         id="stop3897-0-5-7-8-3" />
      <stop
         offset="1"
         style="stop-color:#072a49;stop-opacity:0.78431374;"
         id="stop3899-8-7-06-9-2" />
    </linearGradient>
  </defs>
  <metadata
     id="metadata6654">
    <rdf:RDF>
      <cc:Work
         rdf:about="">
        <dc:format>image/svg+xml</dc:format>
        <dc:type
           rdf:resource="http://purl.org/dc/dcmitype/StillImage" />
        <dc:title />
      </cc:Work>
    </rdf:RDF>
  </metadata>
  <g
     style="opacity:0.6"
     id="g3712-5"
     transform="matrix(1.1578952,0,0,0.6428571,-3.789476,16.035716)">
    <rect
       style="fill:url(#radialGradient3013);fill-opacity:1;stroke:none"
       id="rect2801-3"
       y="40"
       x="38"
       height="7"
       width="5" />
    <rect
       style="fill:url(#radialGradient3015);fill-opacity:1;stroke:none"
       id="rect3696-6"
       transform="scale(-1,-1)"
       y="-47"
       x="-10"
       height="7"
       width="5" />
    <rect
       style="fill:url(#linearGradient6647);fill-opacity:1;stroke:none"
       id="rect3700-4"
       y="40"
       x="10"
       height="7.0000005"
       width="28" />
  </g>
  <rect
     style="color:#000000;display:inline;overflow:visible;visibility:visible;fill:url(#radialGradient5521-1);fill-opacity:1;fill-rule:nonzero;stroke:none;stroke-width:0.99999994;marker:none;enable-background:accumulate"
     id="rect5505-21"
     y="5.4999948"
     x="4.5000124"
     ry="2"
     rx="2"
     height="39"
     width="39" />
  <rect
     style="opacity:0.5;fill:none;stroke:url(#linearGradient3058);stroke-width:1;stroke-linecap:round;stroke-linejoin:round;stroke-miterlimit:4;stroke-dasharray:none;stroke-dashoffset:0;stroke-opacity:1"
     id="rect6741"
     y="6.4999948"
     x="5.5000124"
     ry="1"
     rx="1"
     height="37"
     width="37" />
  <rect
     style="color:#000000;display:inline;overflow:visible;visibility:visible;opacity:0.4;fill:none;stroke:#6173be;stroke-width:1;stroke-linecap:round;stroke-linejoin:round;stroke-miterlimit:4;stroke-dasharray:none;stroke-dashoffset:0;stroke-opacity:1;marker:none;enable-background:accumulate"
     id="rect5505-21-3-2"
     y="5.4999948"
     x="4.5000124"
     ry="2"
     rx="2"
     height="39"
     width="39" />
  <g
     id="g5"
     transform="matrix(0.35,0,0,0.35,-66.120772,1.7885204)">
    <linearGradient
       y2="113"
       x2="64"
       y1="3"
       x1="64"
       gradientUnits="userSpaceOnUse"
       id="linearGradient4246">
      <stop
         id="stop4248"
         style="stop-color:#29ABE2"
         offset="0" />
      <stop
         id="stop4250"
         style="stop-color:#28A9E1"
         offset="0.4757" />
      <stop
         id="stop4252"
         style="stop-color:#23A2DC"
         offset="0.6639" />
      <stop
         id="stop4254"
         style="stop-color:#1A96D4"
         offset="0.8012" />
      <stop
         id="stop4256"
         style="stop-color:#0E85C9"
         offset="0.913" />
      <stop
         id="stop4258"
         style="stop-color:#0071BC"
         offset="1" />
    </linearGradient>
  </g>
  <path
     sodipodi:nodetypes="sssssssssccccccccccc"
     inkscape:connector-curvature="0"
     id="path4259"
     d="M 8.494141,10 C 8.220428,10 8,10.220428 8,10.494141 L 8,41.505859 C 8,41.779572 8.220428,42 8.494141,42 l 31.011718,0 C 39.779572,42 40,41.779572 40,41.505859 L 40,10.494141 C 40,10.220428 39.779572,10 39.505859,10 Z m 6.007812,5 c 0.08407,3.65e-4 0.166686,0.02186 0.240235,0.0625 l 9.5,5.25 9.5,5.25 c 0.345164,0.189928 0.345164,0.685072 0,0.875 l -9.5,5.25 -9.5,5.25 C 14.408603,37.121103 13.99998,36.88023 14,36.5 L 14,26 14,15.5 c -2.36e-4,-0.276638 0.2248,-0.500799 0.501953,-0.5 z"
     style="color:#000000;display:inline;overflow:visible;visibility:visible;opacity:0.15;fill:#000000;fill-opacity:1;fill-rule:nonzero;stroke:none;stroke-width:0.99999994;marker:none;enable-background:accumulate" />
  <path
     style="color:#000000;display:inline;overflow:visible;visibility:visible;fill:#ffffff;fill-opacity:1;fill-rule:nonzero;stroke:none;stroke-width:0.99999994;marker:none;enable-background:accumulate"
     d="M 8.494141,9 C 8.220428,9 8,9.220428 8,9.494141 L 8,40.505859 C 8,40.779572 8.220428,41 8.494141,41 l 31.011718,0 C 39.779572,41 40,40.779572 40,40.505859 L 40,9.494141 C 40,9.220428 39.779572,9 39.505859,9 Z m 6.007812,5 c 0.08407,3.65e-4 0.166686,0.02186 0.240235,0.0625 l 9.5,5.25 9.5,5.25 c 0.345164,0.189928 0.345164,0.685072 0,0.875 l -9.5,5.25 -9.5,5.25 C 14.408603,36.121103 13.99998,35.88023 14,35.5 L 14,25 14,14.5 c -2.36e-4,-0.276638 0.2248,-0.500799 0.501953,-0.5 z"
     id="rect4335"
     inkscape:connector-curvature="0"
     sodipodi:nodetypes="sssssssssccccccccccc" />
  <g
     id="g46"
     transform="matrix(0.35,0,0,0.35,1.95,5.175)" />
  <g
     id="g5-7"
     transform="matrix(0.35,0,0,0.35,-124.23075,-0.1348333)">
    <linearGradient
       y2="113"
       x2="64"
       y1="3"
       x1="64"
       gradientUnits="userSpaceOnUse"
       id="linearGradient4346">
      <stop
         id="stop4248-4"
         style="stop-color:#29ABE2"
         offset="0" />
      <stop
         id="stop4250-3"
         style="stop-color:#28A9E1"
         offset="0.4757" />
      <stop
         id="stop4252-0"
         style="stop-color:#23A2DC"
         offset="0.6639" />
      <stop
         id="stop4254-6"
         style="stop-color:#1A96D4"
         offset="0.8012" />
      <stop
         id="stop4256-4"
         style="stop-color:#0E85C9"
         offset="0.913" />
      <stop
         id="stop4258-8"
         style="stop-color:#0071BC"
         offset="1" />
    </linearGradient>
  </g>
  <g
     id="g46-1"
     transform="matrix(0.35,0,0,0.35,-56.15998,3.2516463)" />
</svg>

<?xml version="1.0" encoding="UTF-8" standalone="no"?>
<!-- Created with Inkscape (http://www.inkscape.org/) -->
<svg id="svg6649" xmlns:rdf="http://www.w3.org/1999/02/22-rdf-syntax-ns#" xmlns="http://www.w3.org/2000/svg" height="48" width="48" version="1.1" xmlns:cc="http://creativecommons.org/ns#" xmlns:xlink="http://www.w3.org/1999/xlink" xmlns:dc="http://purl.org/dc/elements/1.1/">
 <defs id="defs6651">
  <linearGradient id="linearGradient3058" y2="43" gradientUnits="userSpaceOnUse" x2="24" gradientTransform="translate(.000004 1)" y1="5" x1="24">
   <stop id="stop3926-3" stop-color="#fff" offset="0"/>
   <stop id="stop3928-91" stop-color="#fff" stop-opacity=".23529" offset=".063165"/>
   <stop id="stop3930-6" stop-color="#fff" stop-opacity=".15686" offset=".95056"/>
   <stop id="stop3932-6" stop-color="#fff" stop-opacity=".39216" offset="1"/>
  </linearGradient>
  <radialGradient id="radialGradient5521-1" fx="6.2002" gradientUnits="userSpaceOnUse" cy="9.9571" cx="6.7304" gradientTransform="matrix(0 9.4976 -11.66 0 140.93 -79.161)" r="12.672">
   <stop id="stop4242" stop-color="#3aaac5" offset="0"/>
   <stop id="stop4244" stop-color="#5984a6" offset=".26238"/>
   <stop id="stop4246" stop-color="#427ebd" offset=".70495"/>
   <stop id="stop4249" stop-color="#4c67b3" offset="1"/>
  </radialGradient>
  <radialGradient id="radialGradient3013" gradientUnits="userSpaceOnUse" cy="43.5" cx="4.993" gradientTransform="matrix(2.0038 0 0 1.4 27.988 -17.4)" r="2.5">
   <stop id="stop2883" stop-color="#181818" offset="0"/>
   <stop id="stop2885" stop-color="#181818" stop-opacity="0" offset="1"/>
  </radialGradient>
  <radialGradient id="radialGradient3015" gradientUnits="userSpaceOnUse" cy="43.5" cx="4.993" gradientTransform="matrix(2.0038 0 0 1.4 -20.012 -104.4)" r="2.5">
   <stop id="stop2889" stop-color="#181818" offset="0"/>
   <stop id="stop2891" stop-color="#181818" stop-opacity="0" offset="1"/>
  </radialGradient>
  <linearGradient id="linearGradient6647" y2="39.999" gradientUnits="userSpaceOnUse" x2="25.058" y1="47.028" x1="25.058">
   <stop id="stop2895" stop-color="#181818" stop-opacity="0" offset="0"/>
   <stop id="stop2897" stop-color="#181818" offset=".5"/>
   <stop id="stop2899" stop-color="#181818" stop-opacity="0" offset="1"/>
  </linearGradient>
 </defs>
 <metadata id="metadata6654">
  <rdf:RDF>
   <cc:Work rdf:about="">
    <dc:format>image/svg+xml</dc:format>
    <dc:type rdf:resource="http://purl.org/dc/dcmitype/StillImage"/>
    <dc:title/>
   </cc:Work>
  </rdf:RDF>
 </metadata>
 <g id="g3712-5" opacity=".6" transform="matrix(1.1579 0 0 .64286 -3.7895 16.036)">
  <rect id="rect2801-3" height="7" width="5" y="40" x="38" fill="url(#radialGradient3013)"/>
  <rect id="rect3696-6" transform="scale(-1)" height="7" width="5" y="-47" x="-10" fill="url(#radialGradient3015)"/>
  <rect id="rect3700-4" height="7" width="28" y="40" x="10" fill="url(#linearGradient6647)"/>
 </g>
 <rect id="rect5505-21" style="color:#000000" rx="2" ry="2" height="39" width="39" y="5.5" x="4.5" fill="url(#radialGradient5521-1)"/>
 <rect id="rect6741" opacity=".5" stroke-linejoin="round" rx="1" ry="1" height="37" width="37" stroke="url(#linearGradient3058)" stroke-linecap="round" y="6.5" x="5.5" fill="none"/>
 <rect id="rect5505-21-3-2" opacity=".4" stroke-linejoin="round" style="color:#000000" rx="2" ry="2" height="39" width="39" stroke="#6173be" stroke-linecap="round" y="5.5" x="4.5" fill="none"/>
 <path id="path4259" opacity=".15" style="color:#000000" d="m8.4941 10c-0.2737 0-0.4941 0.22-0.4941 0.494v31.012c0 0.274 0.2204 0.494 0.4941 0.494h31.012c0.274 0 0.494-0.22 0.494-0.494v-31.012c0-0.274-0.22-0.494-0.494-0.494zm6.0078 5c0.08407 0.000365 0.16669 0.02186 0.24024 0.0625l9.5 5.25 9.5 5.25c0.34516 0.18993 0.34516 0.68507 0 0.875l-9.5 5.25-9.5 5.25c-0.333 0.184-0.742-0.057-0.742-0.437v-10.5-10.5c-0.000236-0.27664 0.2248-0.5008 0.50195-0.5z"/>
 <path id="rect4335" style="color:#000000" d="m8.4941 9c-0.2737 0-0.4941 0.2204-0.4941 0.4941v31.012c0 0.274 0.2204 0.494 0.4941 0.494h31.012c0.274 0 0.494-0.22 0.494-0.494v-31.012c0-0.2736-0.22-0.494-0.494-0.494zm6.0078 5c0.08407 0.000365 0.16669 0.02186 0.24024 0.0625l9.5 5.25 9.5 5.25c0.34516 0.18993 0.34516 0.68507 0 0.875l-9.5 5.25-9.5 5.25c-0.333 0.184-0.742-0.057-0.742-0.437v-10.5-10.5c-0.000236-0.27664 0.2248-0.5008 0.50195-0.5z" fill="#fff"/>
</svg>
